src/components/pages/Home/assets/illustrationCollector.svg

<?xml version="1.0" encoding="UTF-8"?>
<svg width="88px" height="81px" viewBox="0 0 88 81" version="1.1" xmlns="http://www.w3.org/2000/svg" xmlns:xlink="http://www.w3.org/1999/xlink">
    <title>illustrationCollector</title>
    <g id="Page-1" stroke="none" stroke-width="1" fill="none" fill-rule="evenodd">
        <g id="illustrationCollector">
            <g id="Background">
                <circle id="Oval" fill="#F0F2FF" fill-rule="nonzero" cx="44" cy="40" r="40"></circle>
                <path d="M7.55,56.5 C13.3334611,69.2818814 25.3906099,78.0995172 39.3241426,79.7370706 C53.2576753,81.374624 67.0306528,75.5927016 75.62,64.5 L75.62,64.5 C77.5370397,62.0312067 79.1580997,59.3462213 80.45,56.5 L7.55,56.5 Z" id="Path" fill="#FFFFFF" fill-rule="nonzero"></path>
                <line x1="5" y1="56.5" x2="83" y2="56.5" id="Path" stroke="#4550E5" stroke-linecap="round" stroke-linejoin="round"></line>
                <line x1="0.5" y1="56.5" x2="3" y2="56.5" id="Path" stroke="#4550E5" stroke-linecap="round" stroke-linejoin="round"></line>
                <line x1="85" y1="56.5" x2="87.5" y2="56.5" id="Path" stroke="#4550E5" stroke-linecap="round" stroke-linejoin="round"></line>
                <line x1="16.5" y1="64.5" x2="18.5" y2="64.5" id="Path" stroke="#D6DAFF" stroke-linecap="round"></line>
                <line x1="25.02" y1="64.5" x2="65.24" y2="64.5" id="Path" stroke="#D6DAFF" stroke-linecap="round" stroke-dasharray="4.35"></line>
                <line x1="68.5" y1="64.5" x2="70.5" y2="64.5" id="Path" stroke="#D6DAFF" stroke-linecap="round"></line>
            </g>
            <g id="Scene" transform="translate(9.000000, 10.000000)">
                <path d="M65.23,34.7 C65.3559266,33.9779697 65.1783544,33.2359746 64.7392028,32.6491772 C64.3000513,32.0623799 63.638239,31.6827837 62.91,31.6 C62.9130714,30.5809872 62.2590534,29.6761097 61.2905209,29.3593426 C60.3219884,29.0425755 59.2596666,29.3861089 58.66,30.21 C57.4585703,29.0656257 55.6211231,28.91563 54.25,29.85 C54.25,29.78 54.25,29.71 54.25,29.63 C54.25,28.1112169 53.0187831,26.88 51.5,26.88 C51.0484432,26.8844921 50.6051094,27.0013398 50.21,27.22 C49.8303188,25.6717519 48.4575392,24.5719368 46.8637533,24.5391236 C45.2699675,24.5063104 43.8530839,25.5486912 43.41,27.08 C42.681472,26.7579955 41.8394244,26.8269393 41.1729771,27.2631594 C40.5065297,27.6993795 40.1064099,28.4434907 40.11,29.24 C40.11,29.29 40.11,29.34 40.11,29.39 C39.8541997,29.2934491 39.5834021,29.2426745 39.31,29.24 C38.0415706,29.2667019 37.0212225,30.2914671 37,31.56 L37,46.48 L65.27,46.48 L65.27,34.7 L65.23,34.7 Z" id="Path" fill="#D6DAFF" fill-rule="nonzero"></path>
                <path d="M4.22,23.71 L36,23.71 C36.5522847,23.71 37,24.1577153 37,24.71 L37,46.48 L3.22,46.48 L3.22,24.71 C3.22,24.1577153 3.66771525,23.71 4.22,23.71 Z" id="Path" fill="#FFFFFF" fill-rule="nonzero"></path>
                <path d="M65.23,34.7 C65.3559266,33.9779697 65.1783544,33.2359746 64.7392028,32.6491772 C64.3000513,32.0623799 63.638239,31.6827837 62.91,31.6 C62.9130714,30.5809872 62.2590534,29.6761097 61.2905209,29.3593426 C60.3219884,29.0425755 59.2596666,29.3861089 58.66,30.21 C57.4585703,29.0656257 55.6211231,28.91563 54.25,29.85 C54.25,29.78 54.25,29.71 54.25,29.63 C54.25,28.1112169 53.0187831,26.88 51.5,26.88 C51.0484432,26.8844921 50.6051094,27.0013398 50.21,27.22 C49.8303188,25.6717519 48.4575392,24.5719368 46.8637533,24.5391236 C45.2699675,24.5063104 43.8530839,25.5486912 43.41,27.08 C42.681472,26.7579955 41.8394244,26.8269393 41.1729771,27.2631594 C40.5065297,27.6993795 40.1064099,28.4434907 40.11,29.24 C40.11,29.29 40.11,29.34 40.11,29.39 C39.8541997,29.2934491 39.5834021,29.2426745 39.31,29.24 C38.0415706,29.2667019 37.0212225,30.2914671 37,31.56 L37,46.48 L65.27,46.48 L65.27,34.7 L65.23,34.7 Z" id="Path" stroke="#4550E5" stroke-linecap="round" stroke-linejoin="round"></path>
                <path d="M4.22,23.71 L36,23.71 C36.5522847,23.71 37,24.1577153 37,24.71 L37,46.48 L3.22,46.48 L3.22,24.71 C3.22,24.1577153 3.66771525,23.71 4.22,23.71 Z" id="Path" stroke="#4550E5" stroke-linecap="round" stroke-linejoin="round"></path>
                <path d="M26.78,46.48 L16.57,37.06 L16.57,32.35 L25.7,40.77 C26.3879713,41.4072142 26.7793298,42.3022655 26.78,43.24 L26.78,46.48 Z" id="Path" stroke="#4550E5" fill="#D6DAFF" fill-rule="nonzero" stroke-linecap="round" stroke-linejoin="round"></path>
                <path d="M23.07,14.28 L32.07,14.28 C32.6222847,14.28 33.07,14.7277153 33.07,15.28 L33.07,23.7 L22.07,23.7 L22.07,15.28 C22.07,14.7277153 22.5177153,14.28 23.07,14.28 Z" id="Path" fill="#FFFFFF" fill-rule="nonzero"></path>
                <path d="M23.07,14.28 L32.07,14.28 C32.6222847,14.28 33.07,14.7277153 33.07,15.28 L33.07,23.7 L22.07,23.7 L22.07,15.28 C22.07,14.7277153 22.5177153,14.28 23.07,14.28 Z" id="Path" stroke="#4550E5" stroke-linecap="round" stroke-linejoin="round"></path>
                <path d="M37,33.92 L50.92,33.92 C51.4722847,33.92 51.92,34.3677153 51.92,34.92 L51.92,46.48 L37,46.48 L37,33.92 Z" id="Path" fill="#FFFFFF" fill-rule="nonzero"></path>
                <path d="M64.7,33.92 L67.41,33.92 C67.9622847,33.92 68.41,34.3677153 68.41,34.92 L68.41,46.48 L63.7,46.48 L63.7,34.92 C63.7,34.3677153 64.1477153,33.92 64.7,33.92 Z" id="Path" fill="#FFFFFF" fill-rule="nonzero"></path>
                <path d="M37,33.92 L50.92,33.92 C51.4722847,33.92 51.92,34.3677153 51.92,34.92 L51.92,46.48 L37,46.48 L37,33.92 Z" id="Path" stroke="#4550E5" stroke-linecap="round" stroke-linejoin="round"></path>
                <path d="M64.7,33.92 L67.41,33.92 C67.9622847,33.92 68.41,34.3677153 68.41,34.92 L68.41,46.48 L63.7,46.48 L63.7,34.92 C63.7,34.3677153 64.1477153,33.92 64.7,33.92 Z" id="Path" stroke="#4550E5" stroke-linecap="round" stroke-linejoin="round"></path>
                <rect id="Rectangle" stroke="#4550E5" fill="#FFFFFF" fill-rule="nonzero" stroke-linecap="round" stroke-linejoin="round" x="51.92" y="37.06" width="11.78" height="9.42"></rect>
                <polygon id="Path" stroke="#4550E5" stroke-linecap="round" stroke-linejoin="round" points="0.08 37.06 0.08 46.48 7.15 37.06 7.15 46.48 14.22 37.06 14.22 46.48 7.15 37.06 7.15 46.48"></polygon>
                <path d="M26.78,14.28 L40.36,1.42 C41.1009552,0.701118879 42.2790448,0.701118879 43.02,1.42 L43.02,1.42 C43.6323019,2.03285921 43.7554461,2.98106961 43.32,3.73 L33.07,21.35 L33.07,15.4 C33.07,14.7814411 32.5685589,14.28 31.95,14.28 L26.78,14.28 Z" id="Path" fill="#FFFFFF" fill-rule="nonzero"></path>
                <path d="M26.78,14.28 L40.36,1.42 C41.1009552,0.701118879 42.2790448,0.701118879 43.02,1.42 L43.02,1.42 C43.6323019,2.03285921 43.7554461,2.98106961 43.32,3.73 L33.07,21.35 L33.07,15.4 C33.07,14.7814411 32.5685589,14.28 31.95,14.28 L26.78,14.28 Z" id="Path" stroke="#4550E5" stroke-linecap="round" stroke-linejoin="round"></path>
                <line x1="43.32" y1="3.77" x2="43.32" y2="15.85" id="Path" stroke="#4550E5" stroke-linecap="round" stroke-linejoin="round"></line>
                <path d="M41.06,21.22 C40.1617814,20.3220364 39.8929729,18.9713965 40.378933,17.7979494 C40.864893,16.6245024 42.0099074,15.8593695 43.28,15.8593695 C44.5500926,15.8593695 45.695107,16.6245024 46.181067,17.7979494 C46.6670271,18.9713965 46.3982186,20.3220364 45.5,21.22" id="Path" stroke="#4550E5" stroke-linecap="round" stroke-linejoin="round"></path>
                <path d="M8.72,20.56 L8.72,20.56 C8.30361011,20.56 7.90427447,20.7254102 7.60984235,21.0198424 C7.31541024,21.3142745 7.15,21.7136101 7.15,22.13 L7.15,30 L10.29,30 L10.29,22.14 C10.2926632,21.7218802 10.1284295,21.3199707 9.83370819,21.0233722 C9.53898692,20.7267738 9.13812831,20.56 8.72,20.56 Z" id="Path" fill="#FFFFFF" fill-rule="nonzero"></path>
                <path d="M8.72,20.56 L8.72,20.56 C8.30361011,20.56 7.90427447,20.7254102 7.60984235,21.0198424 C7.31541024,21.3142745 7.15,21.7136101 7.15,22.13 L7.15,30 L10.29,30 L10.29,22.14 C10.2926632,21.7218802 10.1284295,21.3199707 9.83370819,21.0233722 C9.53898692,20.7267738 9.13812831,20.56 8.72,20.56 Z" id="Path" stroke="#4550E5" stroke-linecap="round" stroke-linejoin="round"></path>
                <path d="M32.28,20.56 L32.28,20.56 C31.4129129,20.56 30.71,21.2629129 30.71,22.13 L30.71,46.48 L33.85,46.48 L33.85,22.14 C33.8526632,21.7218802 33.6884295,21.3199707 33.3937082,21.0233722 C33.0989869,20.7267738 32.6981283,20.56 32.28,20.56 Z" id="Path" fill="#FFFFFF" fill-rule="nonzero"></path>
                <path d="M32.28,20.56 L32.28,20.56 C31.4129129,20.56 30.71,21.2629129 30.71,22.13 L30.71,46.48 L33.85,46.48 L33.85,22.14 C33.8526632,21.7218802 33.6884295,21.3199707 33.3937082,21.0233722 C33.0989869,20.7267738 32.6981283,20.56 32.28,20.56 Z" id="Path" stroke="#4550E5" stroke-linecap="round" stroke-linejoin="round"></path>
                <rect id="Rectangle" fill="#D6DAFF" fill-rule="nonzero" x="15.79" y="27.63" width="3.93" height="3.93" rx="1"></rect>
                <path d="M18.59,27.63 L16.91,27.63 C16.2914411,27.63 15.79,28.1314411 15.79,28.75 L15.79,30.43 C15.7910386,30.7266444 15.9097199,31.0107603 16.12,31.22 L19.39,28 C19.1851119,27.7725093 18.8960287,27.6388083 18.59,27.63 Z" id="Path" fill="#FFFFFF" fill-rule="nonzero"></path>
                <rect id="Rectangle" stroke="#4550E5" stroke-linecap="round" stroke-linejoin="round" x="15.79" y="27.63" width="3.93" height="3.93" rx="1"></rect>
                <rect id="Rectangle" fill="#D6DAFF" fill-rule="nonzero" x="23.64" y="27.63" width="3.93" height="3.93" rx="1"></rect>
                <path d="M26.45,27.63 L24.76,27.63 C24.1414411,27.63 23.64,28.1314411 23.64,28.75 L23.64,30.43 C23.6410386,30.7266444 23.7597199,31.0107603 23.97,31.22 L27.24,28 C27.0374942,27.7749672 26.7525164,27.6414966 26.45,27.63 Z" id="Path" fill="#FFFFFF" fill-rule="nonzero"></path>
                <rect id="Rectangle" stroke="#4550E5" stroke-linecap="round" stroke-linejoin="round" x="23.64" y="27.63" width="3.93" height="3.93" rx="1"></rect>
                <path d="M2.08,30 L15.57,30 C16.1222847,30 16.57,30.4477153 16.57,31 L16.57,37.07 L0.08,37.07 L0.08,32 C0.08,30.8954305 0.9754305,30 2.08,30 Z" id="Path" stroke="#4550E5" fill="#FFFFFF" fill-rule="nonzero" stroke-linecap="round" stroke-linejoin="round"></path>
                <path d="M8.72,30 L15.57,30 C16.1222847,30 16.57,30.4477153 16.57,31 L16.57,33.14 L8.72,33.14 L8.72,30 Z" id="Path" fill="#D6DAFF" fill-rule="nonzero"></path>
                <polygon id="Path" fill="#FFFFFF" fill-rule="nonzero" points="13.93 29.99 8.72 29.99 8.72 33.13 10.79 33.13"></polygon>
                <path d="M8.72,30 L15.57,30 C16.1222847,30 16.57,30.4477153 16.57,31 L16.57,33.14 L8.72,33.14 L8.72,30 Z" id="Path" stroke="#4550E5" stroke-linecap="round" stroke-linejoin="round"></path>
                <path d="M2.08,30 L8.72,30 L8.72,33.14 L0.08,33.14 L0.08,32 C0.08,30.8954305 0.9754305,30 2.08,30 Z" id="Path" fill="#D6DAFF" fill-rule="nonzero"></path>
                <path d="M5.82,30 L2.32,30 C1.08288216,30 0.08,31.0028822 0.08,32.24 L0.08,33.14 L2.68,33.14 L5.82,30 Z" id="Path" fill="#FFFFFF" fill-rule="nonzero"></path>
                <path d="M2.08,30 L8.72,30 L8.72,33.14 L0.08,33.14 L0.08,32 C0.08,30.8954305 0.9754305,30 2.08,30 Z" id="Path" stroke="#4550E5" stroke-linecap="round" stroke-linejoin="round"></path>
                <path d="M22.07,18.21 L25,18.21 C25.5522847,18.21 26,18.6577153 26,19.21 L26,23.71 L22.07,23.71 L22.07,18.21 Z" id="Path" fill="#D6DAFF" fill-rule="nonzero"></path>
                <path d="M25.9,18.87 C25.722255,18.475207 25.3328825,18.2182211 24.9,18.21 L22.1,18.21 L22.1,22.7 L25.9,18.87 Z" id="Path" fill="#FFFFFF" fill-rule="nonzero"></path>
                <path d="M22.07,18.21 L25,18.21 C25.5522847,18.21 26,18.6577153 26,19.21 L26,23.71 L22.07,23.71 L22.07,18.21 Z" id="Path" stroke="#4550E5" stroke-linecap="round" stroke-linejoin="round"></path>
                <polyline id="Path" stroke="#4550E5" stroke-linecap="round" stroke-linejoin="round" points="31.5 14.28 31.22 10.08 39.14 10.93 38.48 3.2 43.46 3.47"></polyline>
                <line x1="40.13" y1="46.48" x2="40.13" y2="37.84" id="Path" stroke="#4550E5" stroke-linecap="round" stroke-linejoin="round"></line>
                <line x1="44.06" y1="46.48" x2="44.06" y2="37.84" id="Path" stroke="#4550E5" stroke-linecap="round" stroke-linejoin="round"></line>
                <line x1="47.99" y1="46.48" x2="47.99" y2="37.84" id="Path" stroke="#4550E5" stroke-linecap="round" stroke-linejoin="round"></line>
                <ellipse id="Oval" fill="#F0F2FF" fill-rule="nonzero" cx="53.94" cy="53.24" rx="14.59" ry="1.68"></ellipse>
                <path d="M62.36,48.67 L48.09,48.67 L48.09,41 C48.09,40.4477153 48.5377153,40 49.09,40 L59.67,40 C60.1621797,39.9928441 60.5863726,40.3449242 60.67,40.83 L62.36,48.67 Z" id="Path" stroke="#4550E5" fill="#FFFFFF" fill-rule="nonzero" stroke-linecap="round" stroke-linejoin="round"></path>
                <path d="M41.74,51 L48.09,51 L48.09,41.63 L44.27,41.63 C43.3795283,41.6138882 42.5766698,42.1638463 42.27,43 L41.27,45.79 C41.228086,45.9053035 41.2077473,46.0273354 41.21,46.15 L41.21,50.42 C41.1925554,50.569734 41.2409479,50.7196693 41.3426374,50.8309521 C41.4443268,50.9422348 41.589304,51.0039117 41.74,51 Z" id="Path" stroke="#4550E5" fill="#D6DAFF" fill-rule="nonzero" stroke-linecap="round" stroke-linejoin="round"></path>
                <path d="M41.14,48.09 L48.09,48.09 L48.09,51 L41.14,51 C40.8804262,51 40.67,50.7895738 40.67,50.53 L40.67,48.56 C40.67,48.3004262 40.8804262,48.09 41.14,48.09 L41.14,48.09 Z" id="Path" stroke="#4550E5" fill="#FFFFFF" fill-rule="nonzero" stroke-linecap="round" stroke-linejoin="round"></path>
                <rect id="Rectangle" stroke="#4550E5" fill="#FFFFFF" fill-rule="nonzero" stroke-linecap="round" stroke-linejoin="round" x="48.09" y="48.67" width="12.43" height="2.29"></rect>
                <path d="M60.79,41.23 L63.24,41.23 C63.504377,41.2257972 63.7596579,41.3264714 63.95,41.51 L66.29,43.68 C66.731091,44.0676147 66.9887747,44.6229051 67,45.21 L67,49.91 C67,50.4622847 66.5522847,50.91 66,50.91 L62.36,50.91 L62.36,48.67 L60.79,41.23 Z" id="Path" stroke="#4550E5" fill="#D6DAFF" fill-rule="nonzero" stroke-linecap="round" stroke-linejoin="round"></path>
                <line x1="61.56" y1="44.87" x2="66.97" y2="48.14" id="Path" stroke="#4550E5" fill="#FFFFFF" fill-rule="nonzero" stroke-linecap="round" stroke-linejoin="round"></line>
                <path d="M45.59,46.09 L45.59,41.63 L44.24,41.63 C43.3495283,41.6138882 42.5466698,42.1638463 42.24,43 L41.24,45.79 C41.2091232,45.883672 41.1922742,45.9813965 41.19,46.08 L45.59,46.09 Z" id="Path" fill="#D6DAFF" fill-rule="nonzero"></path>
                <path d="M45.11,41.63 L44.24,41.63 C43.3495283,41.6138882 42.5466698,42.1638463 42.24,43 L41.24,45.79 C41.2091232,45.883672 41.1922742,45.9813965 41.19,46.08 L42.43,46.08 L45.11,41.63 Z" id="Path" fill="#FFFFFF" fill-rule="nonzero"></path>
                <path d="M45.59,46.09 L45.59,41.63 L44.24,41.63 C43.3495283,41.6138882 42.5466698,42.1638463 42.24,43 L41.24,45.79 C41.2091232,45.883672 41.1922742,45.9813965 41.19,46.08 L45.59,46.09 Z" id="Path" stroke="#4550E5" stroke-linecap="round" stroke-linejoin="round"></path>
                <circle id="Oval" stroke="#4550E5" fill="#D6DAFF" fill-rule="nonzero" stroke-linecap="round" stroke-linejoin="round" cx="46.72" cy="50.96" r="2.29"></circle>
                <circle id="Oval" stroke="#4550E5" fill="#D6DAFF" fill-rule="nonzero" stroke-linecap="round" stroke-linejoin="round" cx="60.52" cy="50.96" r="2.29"></circle>
                <path d="M55.69,42.86 L55.48,42.49 C55.3630339,42.2824202 55.1432655,42.1539985 54.905,42.1539985 C54.6667345,42.1539985 54.4469661,42.2824202 54.33,42.49" id="Path" stroke="#4550E5" stroke-width="0.75" stroke-linecap="round" stroke-linejoin="round"></path>
                <polygon id="Path" fill="#4550E5" fill-rule="nonzero" points="56.21 42.33 56.21 43.75 54.97 43.04"></polygon>
                <path d="M55.93,45.92 L56.3,45.92 C56.5404245,45.9252502 56.7646757,45.7993155 56.8853297,45.5912912 C57.0059838,45.383267 57.0039419,45.1260823 56.88,44.92" id="Path" stroke="#4550E5" stroke-width="0.75" stroke-linecap="round" stroke-linejoin="round"></path>
                <polygon id="Path" fill="#4550E5" fill-rule="nonzero" points="56.14 46.63 54.91 45.92 56.14 45.2"></polygon>
                <path d="M53.15,44.54 L52.93,44.92 C52.8060581,45.1260823 52.8040162,45.383267 52.9246703,45.5912912 C53.0453243,45.7993155 53.2695755,45.9252502 53.51,45.92" id="Path" stroke="#4550E5" stroke-width="0.75" stroke-linecap="round" stroke-linejoin="round"></path>
                <polygon id="Path" fill="#4550E5" fill-rule="nonzero" points="52.43 44.36 53.66 43.65 53.66 45.08"></polygon>
            </g>
        </g>
    </g>
</svg>

<svg width="88" height="81" xmlns="http://www.w3.org/2000/svg"><g fill="none" fill-rule="evenodd"><circle fill="#F0F2FF" fill-rule="nonzero" cx="44" cy="40" r="40"/><path d="M7.55 56.5a40 40 0 0 0 68.07 8 40 40 0 0 0 4.83-8H7.55Z" fill="#FFF" fill-rule="nonzero"/><path stroke="#4550E5" stroke-linecap="round" stroke-linejoin="round" d="M5 56.5h78M.5 56.5H3M85 56.5h2.5"/><path stroke="#D6DAFF" stroke-linecap="round" d="M16.5 64.5h2"/><path stroke="#D6DAFF" stroke-linecap="round" stroke-dasharray="4.35" d="M25.02 64.5h40.22"/><path stroke="#D6DAFF" stroke-linecap="round" d="M68.5 64.5h2"/><g transform="translate(9 10)"><path d="M65.23 34.7a2.66 2.66 0 0 0-2.32-3.1 2.35 2.35 0 0 0-4.25-1.39 3.52 3.52 0 0 0-4.41-.36v-.22a2.75 2.75 0 0 0-2.75-2.75 2.72 2.72 0 0 0-1.29.34 3.52 3.52 0 0 0-6.8-.14 2.35 2.35 0 0 0-3.3 2.16v.15a2.33 2.33 0 0 0-.8-.15A2.36 2.36 0 0 0 37 31.56v14.92h28.27V34.7h-.04Z" fill="#D6DAFF" fill-rule="nonzero"/><path d="M4.22 23.71H36a1 1 0 0 1 1 1v21.77H3.22V24.71a1 1 0 0 1 1-1Z" fill="#FFF" fill-rule="nonzero"/><path d="M65.23 34.7a2.66 2.66 0 0 0-2.32-3.1 2.35 2.35 0 0 0-4.25-1.39 3.52 3.52 0 0 0-4.41-.36v-.22a2.75 2.75 0 0 0-2.75-2.75 2.72 2.72 0 0 0-1.29.34 3.52 3.52 0 0 0-6.8-.14 2.35 2.35 0 0 0-3.3 2.16v.15a2.33 2.33 0 0 0-.8-.15A2.36 2.36 0 0 0 37 31.56v14.92h28.27V34.7h-.04ZM4.22 23.71H36a1 1 0 0 1 1 1v21.77H3.22V24.71a1 1 0 0 1 1-1Z" stroke="#4550E5" stroke-linecap="round" stroke-linejoin="round"/><path d="m26.78 46.48-10.21-9.42v-4.71l9.13 8.42a3.37 3.37 0 0 1 1.08 2.47v3.24Z" stroke="#4550E5" fill="#D6DAFF" fill-rule="nonzero" stroke-linecap="round" stroke-linejoin="round"/><path d="M23.07 14.28h9a1 1 0 0 1 1 1v8.42h-11v-8.42a1 1 0 0 1 1-1Z" fill="#FFF" fill-rule="nonzero"/><path d="M23.07 14.28h9a1 1 0 0 1 1 1v8.42h-11v-8.42a1 1 0 0 1 1-1Z" stroke="#4550E5" stroke-linecap="round" stroke-linejoin="round"/><path d="M37 33.92h13.92a1 1 0 0 1 1 1v11.56H37V33.92ZM64.7 33.92h2.71a1 1 0 0 1 1 1v11.56H63.7V34.92a1 1 0 0 1 1-1Z" fill="#FFF" fill-rule="nonzero"/><path d="M37 33.92h13.92a1 1 0 0 1 1 1v11.56H37V33.92ZM64.7 33.92h2.71a1 1 0 0 1 1 1v11.56H63.7V34.92a1 1 0 0 1 1-1Z" stroke="#4550E5" stroke-linecap="round" stroke-linejoin="round"/><path stroke="#4550E5" fill="#FFF" fill-rule="nonzero" stroke-linecap="round" stroke-linejoin="round" d="M51.92 37.06H63.7v9.42H51.92z"/><path stroke="#4550E5" stroke-linecap="round" stroke-linejoin="round" d="M.08 37.06v9.42l7.07-9.42v9.42l7.07-9.42v9.42l-7.07-9.42v9.42z"/><path d="M26.78 14.28 40.36 1.42a1.91 1.91 0 0 1 2.66 0 1.91 1.91 0 0 1 .3 2.31L33.07 21.35V15.4a1.12 1.12 0 0 0-1.12-1.12h-5.17Z" fill="#FFF" fill-rule="nonzero"/><path d="M26.78 14.28 40.36 1.42a1.91 1.91 0 0 1 2.66 0h0a1.91 1.91 0 0 1 .3 2.31L33.07 21.35V15.4a1.12 1.12 0 0 0-1.12-1.12h-5.17ZM43.32 3.77v12.08M41.06 21.22a3.14 3.14 0 1 1 4.44 0" stroke="#4550E5" stroke-linecap="round" stroke-linejoin="round"/><path d="M8.72 20.56a1.57 1.57 0 0 0-1.57 1.57V30h3.14v-7.86a1.57 1.57 0 0 0-1.57-1.58Z" fill="#FFF" fill-rule="nonzero"/><path d="M8.72 20.56h0a1.57 1.57 0 0 0-1.57 1.57V30h3.14v-7.86a1.57 1.57 0 0 0-1.57-1.58Z" stroke="#4550E5" stroke-linecap="round" stroke-linejoin="round"/><path d="M32.28 20.56a1.57 1.57 0 0 0-1.57 1.57v24.35h3.14V22.14a1.57 1.57 0 0 0-1.57-1.58Z" fill="#FFF" fill-rule="nonzero"/><path d="M32.28 20.56h0a1.57 1.57 0 0 0-1.57 1.57v24.35h3.14V22.14a1.57 1.57 0 0 0-1.57-1.58Z" stroke="#4550E5" stroke-linecap="round" stroke-linejoin="round"/><rect fill="#D6DAFF" fill-rule="nonzero" x="15.79" y="27.63" width="3.93" height="3.93" rx="1"/><path d="M18.59 27.63h-1.68a1.12 1.12 0 0 0-1.12 1.12v1.68c.001.297.12.58.33.79L19.39 28a1.12 1.12 0 0 0-.8-.37Z" fill="#FFF" fill-rule="nonzero"/><rect stroke="#4550E5" stroke-linecap="round" stroke-linejoin="round" x="15.79" y="27.63" width="3.93" height="3.93" rx="1"/><rect fill="#D6DAFF" fill-rule="nonzero" x="23.64" y="27.63" width="3.93" height="3.93" rx="1"/><path d="M26.45 27.63h-1.69a1.12 1.12 0 0 0-1.12 1.12v1.68c.001.297.12.58.33.79L27.24 28a1.12 1.12 0 0 0-.79-.37Z" fill="#FFF" fill-rule="nonzero"/><rect stroke="#4550E5" stroke-linecap="round" stroke-linejoin="round" x="23.64" y="27.63" width="3.93" height="3.93" rx="1"/><path d="M2.08 30h13.49a1 1 0 0 1 1 1v6.07H.08V32a2 2 0 0 1 2-2Z" stroke="#4550E5" fill="#FFF" fill-rule="nonzero" stroke-linecap="round" stroke-linejoin="round"/><path d="M8.72 30h6.85a1 1 0 0 1 1 1v2.14H8.72V30Z" fill="#D6DAFF" fill-rule="nonzero"/><path fill="#FFF" fill-rule="nonzero" d="M13.93 29.99H8.72v3.14h2.07z"/><path d="M8.72 30h6.85a1 1 0 0 1 1 1v2.14H8.72V30Z" stroke="#4550E5" stroke-linecap="round" stroke-linejoin="round"/><path d="M2.08 30h6.64v3.14H.08V32a2 2 0 0 1 2-2Z" fill="#D6DAFF" fill-rule="nonzero"/><path d="M5.82 30h-3.5a2.24 2.24 0 0 0-2.24 2.24v.9h2.6L5.82 30Z" fill="#FFF" fill-rule="nonzero"/><path d="M2.08 30h6.64v3.14H.08V32a2 2 0 0 1 2-2Z" stroke="#4550E5" stroke-linecap="round" stroke-linejoin="round"/><path d="M22.07 18.21H25a1 1 0 0 1 1 1v4.5h-3.93v-5.5Z" fill="#D6DAFF" fill-rule="nonzero"/><path d="M25.9 18.87a1.12 1.12 0 0 0-1-.66h-2.8v4.49l3.8-3.83Z" fill="#FFF" fill-rule="nonzero"/><path d="M22.07 18.21H25a1 1 0 0 1 1 1v4.5h-3.93v-5.5ZM31.5 14.28l-.28-4.2 7.92.85-.66-7.73 4.98.27M40.13 46.48v-8.64M44.06 46.48v-8.64M47.99 46.48v-8.64" stroke="#4550E5" stroke-linecap="round" stroke-linejoin="round"/><ellipse fill="#F0F2FF" fill-rule="nonzero" cx="53.94" cy="53.24" rx="14.59" ry="1.68"/><path d="M62.36 48.67H48.09V41a1 1 0 0 1 1-1h10.58a1 1 0 0 1 1 .83l1.69 7.84Z" stroke="#4550E5" fill="#FFF" fill-rule="nonzero" stroke-linecap="round" stroke-linejoin="round"/><path d="M41.74 51h6.35v-9.37h-3.82a2.09 2.09 0 0 0-2 1.37l-1 2.79a1 1 0 0 0-.06.36v4.27a.52.52 0 0 0 .53.58Z" stroke="#4550E5" fill="#D6DAFF" fill-rule="nonzero" stroke-linecap="round" stroke-linejoin="round"/><path d="M41.14 48.09h6.95V51h-6.95a.47.47 0 0 1-.47-.47v-1.97c0-.26.21-.47.47-.47h0ZM48.09 48.67h12.43v2.29H48.09z" stroke="#4550E5" fill="#FFF" fill-rule="nonzero" stroke-linecap="round" stroke-linejoin="round"/><path d="M60.79 41.23h2.45a1 1 0 0 1 .71.28l2.34 2.17c.441.388.699.943.71 1.53v4.7a1 1 0 0 1-1 1h-3.64v-2.24l-1.57-7.44Z" stroke="#4550E5" fill="#D6DAFF" fill-rule="nonzero" stroke-linecap="round" stroke-linejoin="round"/><path stroke="#4550E5" fill="#FFF" fill-rule="nonzero" stroke-linecap="round" stroke-linejoin="round" d="m61.56 44.87 5.41 3.27"/><path d="M45.59 46.09v-4.46h-1.35a2.09 2.09 0 0 0-2 1.37l-1 2.79a1 1 0 0 0-.05.29l4.4.01Z" fill="#D6DAFF" fill-rule="nonzero"/><path d="M45.11 41.63h-.87a2.09 2.09 0 0 0-2 1.37l-1 2.79a1 1 0 0 0-.05.29h1.24l2.68-4.45Z" fill="#FFF" fill-rule="nonzero"/><path d="M45.59 46.09v-4.46h-1.35a2.09 2.09 0 0 0-2 1.37l-1 2.79a1 1 0 0 0-.05.29l4.4.01Z" stroke="#4550E5" stroke-linecap="round" stroke-linejoin="round"/><circle stroke="#4550E5" fill="#D6DAFF" fill-rule="nonzero" stroke-linecap="round" stroke-linejoin="round" cx="46.72" cy="50.96" r="2.29"/><circle stroke="#4550E5" fill="#D6DAFF" fill-rule="nonzero" stroke-linecap="round" stroke-linejoin="round" cx="60.52" cy="50.96" r="2.29"/><path d="m55.69 42.86-.21-.37a.66.66 0 0 0-1.15 0" stroke="#4550E5" stroke-width=".75" stroke-linecap="round" stroke-linejoin="round"/><path fill="#4550E5" fill-rule="nonzero" d="M56.21 42.33v1.42l-1.24-.71z"/><path d="M55.93 45.92h.37a.66.66 0 0 0 .58-1" stroke="#4550E5" stroke-width=".75" stroke-linecap="round" stroke-linejoin="round"/><path fill="#4550E5" fill-rule="nonzero" d="m56.14 46.63-1.23-.71 1.23-.72z"/><path d="m53.15 44.54-.22.38a.66.66 0 0 0 .58 1" stroke="#4550E5" stroke-width=".75" stroke-linecap="round" stroke-linejoin="round"/><path fill="#4550E5" fill-rule="nonzero" d="m52.43 44.36 1.23-.71v1.43z"/></g></g></svg>
